X: 20
T: Begin the Dance
%R: jig
B: "Twenty Four Country Dances for the Year 1782", Thomas Skillern, ed. p.10 #2
F: http://www.vwml.org/browse/browse-collections-dance-tune-books/browse-skillerns1782#
Z: 2014 John Chambers <jc:trillian.mit.edu>
M: 6/8
L: 1/8
K: D
A |\
F2D DED | dcB A3  | g2e f2d | c2d ecA |\
F2D DFD | dcB A3  | g2e f2d | faA d2 :|
|: d |\
aba afd | c2d ecA | aba afd | agf e2d |\
aba afd | c2d ecA | F2D DED | gfe d3 :|
%%begintext align
%%   First and 2d Couple pas Rigadoon
%% Chassee with Partners & Allemand on each
%% side .| the same back again & Allemand
%% on each side :| First 3 Cu. double Promenade
%% :|. Cross over 1 Cu. & right & left at top :|:
%%endtext

%%sep 1 1 500
%%sep 1 1 500
